source/img/contacts-phone.svg

<svg width="30" height="28" viewBox="0 0 35 30" fill="none" xmlns="http://www.w3.org/2000/svg">
<path fill-rule="evenodd" clip-rule="evenodd" d="M18 2.17236C12.4071 2.17236 6.80078 3.1177 4.76656 5.00191C3.07881 6.56509 2.5162 9.32664 2.32655 11.0751C2.32655 11.0751 2.30042 11.2479 2.30042 11.3222C2.30042 12.0079 2.88902 12.5578 3.60866 12.5578C3.69369 12.5578 6.84016 12.3168 8.73714 12.1686C8.78279 12.1623 8.8288 12.1562 8.87445 12.1439C9.58099 12.1255 10.1502 11.5817 10.1502 10.9083L10.1566 8.47406C10.1566 7.72035 10.8044 7.11481 11.6025 7.11481H24.3974C25.1957 7.11481 25.8436 7.72028 25.8436 8.47406L25.85 10.9083C25.85 11.5817 26.4192 12.1255 27.1257 12.1439C27.171 12.1563 27.217 12.1623 27.2632 12.1686C29.1603 12.3167 32.3067 12.5578 32.3915 12.5578C33.1108 12.5578 33.6998 12.0079 33.6998 11.3222C33.6998 11.2479 33.6737 11.0751 33.6737 11.0751C33.4839 9.32664 32.922 6.56516 31.2341 5.00191C29.1993 3.1177 23.5929 2.17236 18 2.17236ZM18 18.2355C16.5543 18.2355 15.3834 19.3413 15.3834 20.7067C15.3834 22.0721 16.5543 23.1778 18 23.1778C19.4457 23.1778 20.6166 22.0721 20.6166 20.7067C20.6166 19.3413 19.4457 18.2355 18 18.2355ZM16.0376 12.6751V11.1306C16.0376 10.2781 15.3048 9.58613 14.4023 9.58613C13.4997 9.58613 12.7669 10.2782 12.7669 11.1306V12.6751L3.94202 21.5779C3.3339 22.1402 2.95439 22.9245 2.95439 23.7897V26.2671C2.95439 27.6325 4.1254 28.7383 5.57102 28.7383H6.22521V30.2829C6.22521 31.1354 6.95802 31.8273 7.86062 31.8273C8.76321 31.8273 9.49595 31.1354 9.49595 30.2829V28.7383H26.5041V30.2829C26.5041 31.1354 27.2366 31.8273 28.1396 31.8273C29.0422 31.8273 29.7748 31.1354 29.7748 30.2829V28.7383H30.4289C31.8746 28.7383 33.0455 27.6325 33.0455 26.2671V23.7897C33.0455 22.9245 32.6661 22.1401 32.0579 21.5779L23.2333 12.6751V11.1306C23.2333 10.2781 22.5005 9.58613 21.5979 9.58613C20.6953 9.58613 19.9626 10.2782 19.9626 11.1306V12.6751H16.0376ZM18 15.7643C20.8914 15.7643 23.2333 17.976 23.2333 20.7067C23.2333 23.4375 20.8915 25.6494 18 25.6494C15.1086 25.6494 12.7668 23.4375 12.7668 20.7067C12.7668 17.976 15.1086 15.7643 18 15.7643Z" fill="#fff"/>
</svg>

<svg width="30" height="28" viewBox="0 0 35 30" fill="none" xmlns="http://www.w3.org/2000/svg"><path fill-rule="evenodd" clip-rule="evenodd" d="M18 2.172c-5.593 0-11.2.946-13.233 2.83-1.688 1.563-2.25 4.325-2.44 6.073 0 0-.027.173-.027.247 0 .686.589 1.236 1.309 1.236.085 0 3.231-.241 5.128-.39.046-.006.092-.012.137-.024.707-.018 1.276-.562 1.276-1.236l.007-2.434c0-.754.647-1.36 1.445-1.36h12.795c.799 0 1.447.606 1.447 1.36l.006 2.434c0 .674.57 1.218 1.276 1.236.045.012.091.018.137.025 1.897.148 5.044.389 5.128.389.72 0 1.309-.55 1.309-1.236 0-.074-.026-.247-.026-.247-.19-1.748-.752-4.51-2.44-6.073C29.2 3.118 23.593 2.172 18 2.172zm0 16.063c-1.446 0-2.617 1.106-2.617 2.472 0 1.365 1.171 2.47 2.617 2.47s2.617-1.105 2.617-2.47c0-1.366-1.171-2.472-2.617-2.472zm-1.962-5.56v-1.544c0-.853-.733-1.545-1.636-1.545-.902 0-1.635.692-1.635 1.545v1.544l-8.825 8.903a3.008 3.008 0 00-.988 2.212v2.477c0 1.366 1.171 2.471 2.617 2.471h.654v1.545c0 .852.733 1.544 1.636 1.544.902 0 1.635-.692 1.635-1.544v-1.545h17.008v1.545c0 .852.733 1.544 1.636 1.544.902 0 1.635-.692 1.635-1.544v-1.545h.654c1.446 0 2.616-1.105 2.616-2.47V23.79c0-.866-.379-1.65-.987-2.212l-8.825-8.903v-1.544c0-.853-.733-1.545-1.635-1.545-.903 0-1.635.692-1.635 1.545v1.544h-3.925zM18 15.765c2.891 0 5.233 2.211 5.233 4.942 0 2.73-2.341 4.942-5.233 4.942-2.891 0-5.233-2.212-5.233-4.942 0-2.731 2.342-4.943 5.233-4.943z" fill="#fff"/></svg>
